!!!OTL@@DE: Fr&uuml;hlingsliebe
!!!ONB: Componist unbekannt
!!!OMD: Etwas bewegt
!!!LYR: Keil, Georg
!!!LDT: 1834
!!!OCL: Erk, Ludwig
!!!GCO: Deutscher Liederschatz, Band 1
**kern	**kern	**kern
*staff3	*staff2	*staff1
*Ipiano	*Ipiano	*Ivox
*>[A,A,B]	*>[A,A,B]	*>[A,A,B]
*>norep[A,B]	*>norep[A,B]	*>norep[A,B]
*>A	*>A	*>A
*clefF4	*clefG2	*clefG2
*k[]	*k[]	*k[]
*C:	*C:	*C:
*M3/4	*M3/4	*M3/4
*MM96	*MM96	*MM96
4r	8e/ 8g/L	8g/
.	8e/ 8g/ 8cc/J	8cc\
=1	=1	=1
4GG/	8.d/ 8.f/ 8.b/L	8.b\
.	16c/ 16f/ 16a/k	16a/
4G\	8B/ 8f/ 8g/	8g/
.	8c/ 8e/ 8a/J	8a/
4G\	8B/ 8d/ 8g/L	8g/
.	8B/ 8d/ 8f/J	8f/
=2	=2	=2
4C\ 4G\	8.c/ 8.e/L	8.e/
.	16d/ 16f/Jk	16f/
4C\ 4G\	4e/ 4g/	4g/
=:|!	=:|!	=:|!
*>B	*>B	*>B
4C\ 4G\	8c/ 8e/ 8g/L	8g/
.	8e/ 8g/J	8g/
=3	=3	=3
4FF/ 4F/	8.c/ 8.f/ 8.a/L	8.a/
.	16A/ 16c/ 16f/k	16f/
4r	8A/ 8c/ 8f/	8f/
.	8A/ 8c/ 8f/J	8f/
4FF/ 4F/	8c/ 8f/ 8a/L	8a/
.	8c/ 8a/J	8a/
=4	=4	=4
4EE/ 4E/	8.e/ 8.g#/ 8.b/L	8.b\
.	16B/ 16e/ 16g#/k	16g#/
4r	8B/ 8e/ 8g#/	8g#/
.	8B/ 8e/ 8g#/J	8g#/
4EE/ 4E/	8e/ 8g#/ 8b/L	8b\
.	8e/ 8g#/ 8b/J	8b\
=5	=5	=5
4AAA/ 4AA/	8.e/ 8.a/ 8.cc/L	8.cc\
.	16c/ 16e/ 16a/k	16a/
8AA/ 8A/L	8c/ 8e/ 8a/	8a/
8GG#/ 8G#/J	8e/ 8b/J	8b\
8AA/ 8A/L	8e/ 8a/ 8cc/L	8cc\
8FF/ 8F/J	8a/ 8b/ 8dd/J	8dd\
=6	=6	=6
*^	*^	*
8.E/	2EE\	2g#/ 2b/ 2ee/	8.r	2ee\
16E/	.	.	16e\	.
8E/L	.	.	8e\L	.
8E/J	.	.	8e\J	.
*v	*v	*	*	*
4CC#/ 4C#/	4ryy	8gn\ 8b-\ 8ee\L	8ee'\
.	.	8g\ 8b-\ 8ee\J	8ee\
*	*v	*v	*
=7	=7	=7
4DD/ 4D/	8.f#\ 8.a\ 8.ee\L	8.ee\
.	16f#\ 16a\ 16dd\k	16dd\
4D\ 4d\	8f#\ 8a\ 8dd\	8dd\
.	8f#\ 8a\J	8a/
8G\ 8d\L	8fn/ 8b/L	8b\
8G\ 8B\J	8f/ 8g/J	8g/
=8	=8	=8
4C\ 4c\	4e/ 4g/ 4cc/	4cc\
4CC/ 4C/	4c/	4r
==	==	==
*-	*-	*-
!!!ENC: Craig Stuart Sapp
!!!END: 2004/05/27/
!!!EFL: 114/651
